X: 137
T: No_93_Song_for_East_Stake_of_Drum.krn
N: Derived from No_93_Song_for_East_Stake_of_Drum.krn
%%abc-version 2.0
%%abcx-abcm2ps-target-version 5.9.1 (29 Sep 2008)
%%abc-creator hum2abc beta
%%abcx-conversion-date 2019/03/15 08:35:45
%%humdrum-veritas 983313874
%%humdrum-veritas-data 2217343833
%%linebreak <none>
%%barnumbers 0
L: 1/8
M: 2/4
K: E clef=bass
[K:clef=bass][M:2/4]C/C/C CC | 
B,2B,3/B,/ | 
B,4 ]|:  
[M:2/4]C/C/C CC | 
B,B, B,3/B,/ ||  
[M:3/4]B,4z2 ||  
[M:3/8]B,/B,/G,F, ||  
[M:2/4]G,/G,/F, F,F, ||  
[M:3/8]E,/E,/E, z ||  
[M:2/4]F,/F,/G, G,F, | 
E,E, E,3/E,/ | 
E,2z2 ||  
[M:3/4]E,B,, B,,B,, B,, z ||  
[M:2/4]C,/C,/E, E,E, | 
C,C, C,C, | 
B,,B,, B,,3/B,,/ ||  
[M:3/4]B,,4z2 :|]  



